icons/knowledge-graph-data-store-16.svg

<?xml version="1.0" encoding="UTF-8"?><svg id="icons" xmlns="http://www.w3.org/2000/svg" viewBox="0 0 16 16"><defs><style>.cls-1{fill:none;}.cls-1,.cls-2{stroke-width:0px;}</style></defs><rect class="cls-1" x="0" width="16" height="16"/><path class="cls-2" d="M15.5,8h-1c-.13055,0-.24719.05286-.33624.13477l-2.16376-1.08167v-.5531c0-.27618-.22388-.5-.5-.5h-1c-.27612,0-.5.22382-.5.5v.93445l-1.5658,1.56555h-.9342c-.27612,0-.5.22382-.5.5v1c0,.27612.22388.5.5.5h.33783l.50769,2.03119c-.19928.0658-.34552.24744-.34552.46881v1c0,.27612.22388.5.5.5h1c.23926,0,.42981-.17157.479-.39606l3.021.60431v.29175c0,.27612.22388.5.5.5h1c.27612,0,.5-.22388.5-.5v-1c0-.25134-.18854-.45062-.43005-.4859l.66913-4.0141h.26093c.27612,0,.5-.22388.5-.5v-1c0-.27618-.22388-.5-.5-.5ZM11.83643,7.86511l2.16357,1.08209v.24097l-1.28827.86267c-.06482-.0307-.13525-.05084-.21173-.05084h-.33765l-.50781-2.03119c.06824-.02252.13019-.05615.18188-.1037ZM9,9.5658l1.56555-1.5658h.27209l.50775,2.03119c-.1499.0495-.26465.16437-.31415.31421l-2.03125-.50751v-.27209ZM9.43408,13h-.27179l-.50793-2.03119c.15002-.04956.26489-.16443.31445-.31445l2.03119.50818v.27155l-1.56592,1.56592ZM13.021,14.39594l-3.021-.60406v-.2287l1.55725-1.56317h.49548l1.08197,2.16394c-.05872.06378-.09442.14423-.11371.23199ZM13.80762,13.72064l-.94232-1.88452c.08191-.08899.1347-.20563.1347-.33612v-.68585l1.29285-.86188c.04236.01941.08942.02655.13708.03357l-.62231,3.7348ZM1,10.47949v-3.57306c1.10126.67175,3.04523,1.07306,5.5,1.07306.56476,0,1.09882-.02356,1.60547-.06445l.89453-.89453v-.13794c-.70044.11102-1.5296.18042-2.5.18042-3.83887,0-5.5-1.07666-5.5-1.5835v-1.57306c1.10126.67175,3.04523,1.09357,5.5,1.09357s4.39874-.42181,5.5-1.09357v1.18481c.42407.15118.76068.48602.91229.90875h.08771v-3.52051c0-1.49512-2.6123-2.47949-6.5-2.47949S0,.98438,0,2.47949v8C0,11.97461,2.6123,12.97949,6.5,12.97949c.17023,0,.33521-.00403.5-.00818v-.91718c-.16516.00671-.3208.01782-.5.01782-3.83887,0-5.5-1.08563-5.5-1.59247ZM6.5.92548c3.83887,0,5.5,1.04718,5.5,1.55402s-1.66113,1.5835-5.5,1.5835S1,2.98633,1,2.47949,2.66113.92548,6.5.92548Z"/></svg>

<svg xmlns="http://www.w3.org/2000/svg" viewBox="0 0 16 16"><path stroke-width="0" fill="none" d="M0 0h16v16H0z"/><path d="M15.5 8h-1a.495.495 0 0 0-.336.135L12 7.053V6.5a.5.5 0 0 0-.5-.5h-1a.5.5 0 0 0-.5.5v.934L8.434 9H7.5a.5.5 0 0 0-.5.5v1a.5.5 0 0 0 .5.5h.338l.508 2.031A.495.495 0 0 0 8 13.5v1a.5.5 0 0 0 .5.5h1c.24 0 .43-.172.479-.396l3.021.604v.292a.5.5 0 0 0 .5.5h1a.5.5 0 0 0 .5-.5v-1a.494.494 0 0 0-.43-.486L15.24 10h.26a.5.5 0 0 0 .5-.5v-1a.5.5 0 0 0-.5-.5zm-3.664-.135L14 8.947v.241l-1.288.863A.491.491 0 0 0 12.5 10h-.338l-.507-2.031a.494.494 0 0 0 .181-.104zM9 9.565L10.566 8h.272l.507 2.031a.49.49 0 0 0-.314.314L9 9.838v-.272zM9.434 13h-.272l-.508-2.031a.49.49 0 0 0 .315-.315l2.031.509v.271L9.434 13zm3.587 1.396L10 13.792v-.229L11.557 12h.496l1.082 2.164a.493.493 0 0 0-.114.232zm.787-.675l-.943-1.885A.495.495 0 0 0 13 11.5v-.686l1.293-.862c.042.02.09.027.137.034l-.622 3.735zM1 10.479V6.906c1.101.672 3.045 1.073 5.5 1.073.565 0 1.099-.023 1.605-.064L9 7.021v-.138c-.7.11-1.53.18-2.5.18-3.839 0-5.5-1.077-5.5-1.584V3.906C2.101 4.578 4.045 5 6.5 5s4.399-.422 5.5-1.094v1.185c.424.151.76.486.912.909H13V2.48C13 .983 10.388 0 6.5 0S0 .984 0 2.48v8c0 1.495 2.612 2.5 6.5 2.5.17 0 .335-.005.5-.009v-.917c-.165.007-.32.018-.5.018-3.839 0-5.5-1.086-5.5-1.593zM6.5.925c3.839 0 5.5 1.048 5.5 1.555s-1.661 1.583-5.5 1.583S1 2.986 1 2.479 2.661.925 6.5.925z" stroke-width="0"/></svg>
